icons/folder_type_paket.svg

<svg xmlns="http://www.w3.org/2000/svg" viewBox="0 0 32 32"><path d="M27.5 5.5h-9.3l-2.1 4.2H4.4v16.8h25.2v-21Zm0 4.2h-8.2l1.1-2.1h7.1Z" style="fill:#558dbf"/><path d="M9.942 15.246 20.5 10l10.558 5.246v.693L20.5 21.185l-10.558-5.23Z" style="fill:#0a6ec9"/><path d="M9.942 15.246 20.5 20.492l10.558-5.246v10.508L20.467 31 9.942 25.754Z" style="fill:#0568c1"/><path d="M20.5 30.984V20.492l-10.492-5.213h-.066v10.475L20.467 31Z" style="fill:#0663b4"/><path d="m14.248 13.118 10.541 5.246 2.145-1.056-10.575-5.246Z" style="fill:#add4f7"/><path d="m24.789 18.364 2.145-1.056v3.3l-.577-.1-.61.742-.957-.066Z" style="fill:#99c7f2"/><path d="M18.322 24.682 14.759 22.9c-.2-.1-.363.017-.363.264v2.392a.757.757 0 0 0 .363.627l3.58 1.782c.2.1.363-.017.363-.264v-2.409a.784.784 0 0 0-.38-.61Zm-.808 1.963-2.277-1.138a.4.4 0 0 1-.181-.33c0-.132.082-.2.181-.148l2.277 1.138a.4.4 0 0 1 .181.33c.005.131-.082.197-.181.148Zm.33-.825-2.606-1.32a.4.4 0 0 1-.181-.33c0-.132.082-.2.181-.148l2.606 1.32a.4.4 0 0 1 .181.33c.001.148-.082.198-.181.148Z" style="fill:#f2f2f2"/></svg>

<svg xmlns="http://www.w3.org/2000/svg" viewBox="0 0 32 32"><title>folder_type_paket</title><path d="M27.5,5.5H18.2L16.1,9.7H4.4V26.5H29.6V5.5Zm0,4.2H19.3l1.1-2.1h7.1Z" style="fill:#558dbf"/><path d="M9.942,15.246,20.5,10l10.558,5.246v.693L20.5,21.185,9.942,15.955Z" style="fill:#0a6ec9"/><path d="M9.942,15.246,20.5,20.492l10.558-5.246V25.754L20.467,31,9.942,25.754Z" style="fill:#0568c1"/><path d="M20.5,30.984V20.492L10.008,15.279H9.942V25.754L20.467,31Z" style="fill:#0663b4"/><path d="M14.248,13.118l10.541,5.246,2.145-1.056L16.359,12.062Z" style="fill:#add4f7"/><path d="M24.789,18.364l2.145-1.056v3.3l-.577-.1-.61.742-.957-.066Z" style="fill:#99c7f2"/><path d="M18.322,24.682,14.759,22.9c-.2-.1-.363.017-.363.264v2.392a.757.757,0,0,0,.363.627l3.58,1.782c.2.1.363-.017.363-.264V25.292A.784.784,0,0,0,18.322,24.682Zm-.808,1.963-2.277-1.138a.4.4,0,0,1-.181-.33c0-.132.082-.2.181-.148l2.277,1.138a.4.4,0,0,1,.181.33C17.7,26.628,17.613,26.694,17.514,26.645Zm.33-.825L15.238,24.5a.4.4,0,0,1-.181-.33c0-.132.082-.2.181-.148l2.606,1.32a.4.4,0,0,1,.181.33C18.026,25.82,17.943,25.87,17.844,25.82Z" style="fill:#f2f2f2"/></svg>
